assets/images/svg/visa.svg

<svg width="20" height="20" viewBox="0 0 20 20" fill="none" xmlns="http://www.w3.org/2000/svg">
<path d="M7.59333 6.88502L4.975 13.1317H3.26667L1.97833 8.14585C1.9 7.83919 1.8325 7.72669 1.59417 7.59752C1.20583 7.38669 0.564167 7.18919 0 7.06585L0.0383333 6.88502H2.78833C2.96804 6.88484 3.14189 6.94891 3.27851 7.06566C3.41512 7.18241 3.5055 7.34415 3.53333 7.52169L4.21417 11.1367L5.89583 6.88502H7.59333ZM14.2875 11.0925C14.2942 9.44335 12.0075 9.35252 12.0233 8.61585C12.0283 8.39169 12.2417 8.15335 12.7083 8.09252C13.2552 8.04058 13.806 8.13732 14.3025 8.37252L14.5858 7.04752C14.1025 6.86581 13.5906 6.77183 13.0742 6.77002C11.4767 6.77002 10.3525 7.62002 10.3425 8.83585C10.3325 9.73502 11.145 10.2359 11.7575 10.5359C12.3875 10.8417 12.5992 11.0384 12.5958 11.3117C12.5917 11.7317 12.0942 11.9159 11.6292 11.9234C10.8167 11.9359 10.3458 11.7042 9.96917 11.5292L9.67667 12.8975C10.0542 13.0709 10.7508 13.2225 11.4733 13.2292C13.1708 13.2292 14.2817 12.3909 14.2875 11.0925ZM18.505 13.1317H20L18.6958 6.88502H17.3158C17.1684 6.88365 17.0239 6.92662 16.9012 7.00834C16.7785 7.09007 16.6831 7.20678 16.6275 7.34335L14.2033 13.1317H15.9L16.2375 12.1984H18.3108L18.505 13.1317ZM16.7025 10.9184L17.5525 8.57252L18.0425 10.9184H16.7025ZM9.9025 6.88502L8.56667 13.1317H6.95L8.2875 6.88502H9.9025Z" fill="#00162E"/>
</svg>

<svg xmlns="http://www.w3.org/2000/svg" width="20" height="20" fill="none" viewBox="0 0 20 20"><path fill="#00162e" d="m7.593 6.885-2.618 6.247H3.267L1.978 8.146c-.078-.307-.145-.42-.384-.548C1.206 7.387.564 7.189 0 7.066l.038-.181h2.75a.75.75 0 0 1 .745.637l.681 3.615 1.682-4.252zm6.695 4.208c.006-1.65-2.28-1.74-2.265-2.477.005-.224.219-.463.685-.523a3.05 3.05 0 0 1 1.595.28l.283-1.325a4.3 4.3 0 0 0-1.512-.278c-1.597 0-2.722.85-2.732 2.066-.01.899.803 1.4 1.415 1.7.63.306.842.502.839.776-.004.42-.502.604-.967.611-.812.013-1.283-.219-1.66-.394l-.292 1.369c.377.173 1.074.325 1.796.331 1.698 0 2.809-.838 2.814-2.136m4.217 2.039H20l-1.304-6.247h-1.38a.74.74 0 0 0-.688.458l-2.425 5.789H15.9l.338-.934h2.073zm-1.802-2.214.85-2.345.49 2.345zm-6.8-4.033-1.336 6.247H6.95l1.337-6.247z"/></svg>
